material/.icons/material/christianity-outline.svg

<svg xmlns="http://www.w3.org/2000/svg" viewBox="0 0 24 24"><path d="M15.5 6V1h-7v5H3v7h5.5v10h7V13H21V6h-5.5m3.5 5h-5.5v10h-3V11H5V8h5.5V3h3v5H19v3z"/></svg>

<?xml version="1.0" encoding="UTF-8"?><!DOCTYPE svg PUBLIC "-//W3C//DTD SVG 1.1//EN" "http://www.w3.org/Graphics/SVG/1.1/DTD/svg11.dtd"><svg xmlns="http://www.w3.org/2000/svg" xmlns:xlink="http://www.w3.org/1999/xlink" version="1.1" id="mdi-christianity-outline" width="24" height="24" viewBox="0 0 24 24"><path d="M15.5,6V1H8.5V6H3V13H8.5V23H15.5V13H21V6H15.5M19,11H13.5V21H10.5V11H5V8H10.5V3H13.5V8H19V11Z" /></svg>
